src/assets/cart.svg

<svg width="25" height="21" viewBox="0 0 25 21" fill="none" xmlns="http://www.w3.org/2000/svg">
<path fill-rule="evenodd" clip-rule="evenodd" d="M9.73106 18.8834C9.73106 17.8358 8.90901 16.9949 7.88498 16.9949C6.86097 16.9949 6.0389 17.8358 6.0389 18.8834C6.0389 19.931 6.86097 20.7719 7.88498 20.7719C8.90901 20.7719 9.73106 19.931 9.73106 18.8834ZM22.6536 18.8834C22.6536 17.8358 21.8315 16.9949 20.8075 16.9949C19.7835 16.9949 18.9614 17.8358 18.9614 18.8834C18.9614 19.931 19.7835 20.7719 20.8075 20.7719C21.8315 20.7719 22.6536 19.931 22.6536 18.8834ZM24.4997 2.83252C24.4997 2.31601 24.0814 1.88837 23.5766 1.88837H6.25526C6.11107 1.18018 6.09657 0 5.11591 0H1.42372C0.918956 0 0.500732 0.427865 0.500732 0.944C0.500732 1.46049 0.918956 1.88837 1.42372 1.88837H4.36593L6.91872 14.0299C6.71678 14.4574 6.0389 15.5936 6.0389 16.0509C6.0389 16.5674 6.45715 16.9949 6.96199 16.9949H21.7306C22.2353 16.9949 22.6536 16.5674 22.6536 16.0509C22.6536 15.5347 22.2353 15.1067 21.7306 15.1067H8.46192C8.60611 14.8116 8.80807 14.5017 8.80807 14.1627C8.80807 13.8232 8.6782 13.4546 8.62053 13.1297L23.6776 11.3302C24.1535 11.271 24.4997 10.858 24.4997 10.3857V2.83252Z" fill="white"/>
</svg>

<svg xmlns="http://www.w3.org/2000/svg" width="25" height="21" fill="none"><path fill="#fff" fill-rule="evenodd" d="M9.731 18.883c0-1.047-.822-1.888-1.846-1.888s-1.846.84-1.846 1.888.822 1.889 1.846 1.889 1.846-.841 1.846-1.889Zm12.923 0c0-1.047-.823-1.888-1.846-1.888-1.024 0-1.847.84-1.847 1.888s.823 1.889 1.847 1.889c1.023 0 1.846-.841 1.846-1.889ZM24.5 2.833a.94.94 0 0 0-.923-.945H6.255C6.111 1.18 6.097 0 5.115 0H1.425A.94.94 0 0 0 .5.944a.94.94 0 0 0 .923.944h2.942L6.919 14.03c-.202.427-.88 1.564-.88 2.02a.94.94 0 0 0 .923.945h14.769a.94.94 0 0 0 .923-.944.94.94 0 0 0-.923-.944H8.46c.145-.295.347-.605.347-.944 0-.34-.13-.708-.187-1.033l15.057-1.8a.948.948 0 0 0 .822-.944V2.833Z" clip-rule="evenodd"/></svg>
